build/redact/BorderBottomOutline.svg

<svg xmlns="http://www.w3.org/2000/svg" fill="none" viewBox="0 0 24 24" focusable="false"><path d="M0 0H24V24H0z" transform="matrix(1 0 0 -1 0 24)"/><path fill="#74767B" fill-rule="evenodd" d="M7.09351 5.36541C7.2702 5.32276 7.45528 5.3 7.64654 5.3L8.30343 5.3C8.66207 5.3 8.95281 5.00898 8.95281 4.65C8.95281 4.29101 8.66207 4 8.30343 4L7.64654 4C7.35193 4 7.06465 4.0351 6.78898 4.10166C6.4915 4.17347 6.29171 4.43965 6.29171 4.733C6.29171 4.78346 6.29762 4.83473 6.30997 4.88594C6.39406 5.23492 6.74486 5.44959 7.09351 5.36541ZM11.3352 4C10.9766 4 10.6859 4.29101 10.6859 4.65C10.6859 5.00898 10.9766 5.3 11.3352 5.3L12.649 5.3C13.0077 5.3 13.2984 5.00898 13.2984 4.65C13.2984 4.29101 13.0077 4 12.649 4L11.3352 4ZM15.6808 4C15.3222 4 15.0314 4.29101 15.0314 4.65C15.0314 5.00898 15.3222 5.3 15.6808 5.3L16.3377 5.3C16.529 5.3 16.714 5.32276 16.8907 5.36541C17.2394 5.44959 17.5902 5.23492 17.6743 4.88594C17.6866 4.83473 17.6925 4.78346 17.6925 4.733C17.6925 4.43965 17.4927 4.17347 17.1953 4.10166C16.9196 4.0351 16.6323 4 16.3377 4L15.6808 4ZM5.36412 7.09645C5.37646 7.04523 5.38237 6.99397 5.38237 6.94351C5.38237 6.65015 5.18258 6.38398 4.8851 6.31216C4.53646 6.22799 4.18565 6.44265 4.10156 6.79163C4.03507 7.06756 4 7.35511 4 7.65L4 8.3072C4 8.66619 4.29074 8.9572 4.64938 8.9572C5.00803 8.9572 5.29877 8.66619 5.29877 8.3072L5.29877 7.65C5.29877 7.45856 5.3215 7.27331 5.36412 7.09645ZM19.8827 6.79163C19.7986 6.44265 19.4478 6.22799 19.0991 6.31216C18.8017 6.38398 18.6019 6.65015 18.6019 6.94351C18.6019 6.99397 18.6078 7.04523 18.6201 7.09645C18.6628 7.27331 18.6855 7.45856 18.6855 7.65L18.6855 8.3072C18.6855 8.66619 18.9762 8.9572 19.3349 8.9572C19.6935 8.9572 19.9842 8.66619 19.9843 8.3072L19.9843 7.65C19.9843 7.35511 19.9492 7.06756 19.8827 6.79163ZM11.3373 8.92148C11.3373 9.28047 11.628 9.57148 11.9867 9.57148C12.3453 9.57148 12.636 9.28047 12.636 8.92148L12.636 7.72637C12.636 7.36738 12.3453 7.07637 11.9867 7.07637C11.628 7.07637 11.3373 7.36738 11.3373 7.72637L11.3373 8.92148ZM19.9843 11.3405C19.9843 10.9815 19.6935 10.6905 19.3349 10.6905C18.9762 10.6905 18.6855 10.9815 18.6855 11.3405L18.6855 12.6549C18.6855 13.0138 18.9762 13.3049 19.3349 13.3049C19.6935 13.3049 19.9842 13.0138 19.9843 12.6549L19.9843 11.3405ZM5.29877 11.3405C5.29877 10.9815 5.00803 10.6905 4.64938 10.6905C4.29074 10.6905 4 10.9815 4 11.3405L4 12.6549C4 13.0138 4.29074 13.3049 4.64938 13.3049C5.00803 13.3049 5.29877 13.0138 5.29877 12.6549L5.29877 11.3405ZM7.06789 11.9977C7.06789 12.3567 7.35863 12.6477 7.71727 12.6477L8.91235 12.6477C9.27099 12.6477 9.56173 12.3567 9.56173 11.9977C9.56173 11.6387 9.27099 11.3477 8.91235 11.3477L7.71727 11.3477C7.35863 11.3477 7.06789 11.6387 7.06789 11.9977ZM14.412 11.9978C14.412 12.3568 14.7027 12.6478 15.0614 12.6478L16.2564 12.6478C16.6151 12.6478 16.9058 12.3568 16.9058 11.9978C16.9058 11.6389 16.6151 11.3478 16.2564 11.3478L15.0614 11.3478C14.7027 11.3478 14.412 11.6389 14.412 11.9978ZM11.3373 16.2672C11.3373 16.6262 11.628 16.9172 11.9867 16.9172C12.3453 16.9172 12.636 16.6262 12.636 16.2672L12.636 15.0721C12.636 14.7131 12.3453 14.4221 11.9867 14.4221C11.628 14.4221 11.3373 14.7131 11.3373 15.0721L11.3373 16.2672ZM7.6542 18.6953C6.36747 18.6838 5.32794 17.6361 5.32794 16.3454L5.32794 15.9912C5.32794 15.9239 5.31773 15.859 5.29877 15.798L5.29877 15.6881C5.29877 15.3291 5.00803 15.0381 4.64938 15.0381C4.29074 15.0381 4 15.3291 4 15.6881L4 16.3453C4 16.6402 4.03507 16.9278 4.10156 17.2037C4.11853 17.2741 4.14636 17.3391 4.18285 17.3972C4.53998 18.5871 5.48741 19.5213 6.68462 19.859C6.71783 19.8732 6.75268 19.8849 6.78898 19.8937C7.06465 19.9602 7.35193 19.9953 7.64654 19.9953L7.6488 19.9953C7.65776 19.9954 7.66673 19.9954 7.67571 19.9954L16.3535 19.9954C18.3674 19.9954 20 18.3612 20 16.3454L20 15.9912C20 15.9421 19.9946 15.8943 19.9843 15.8483L19.9843 15.6881C19.9843 15.3291 19.6935 15.0381 19.3349 15.0381C18.9762 15.0381 18.6855 15.3291 18.6855 15.6881L18.6855 16.3453C18.6855 16.5367 18.6628 16.722 18.6201 16.8989C18.6102 16.9399 18.6045 16.981 18.6026 17.0216C18.3691 17.8007 17.7427 18.4097 16.9537 18.6179C16.9328 18.6208 16.9117 18.6248 16.8907 18.6299C16.714 18.6726 16.529 18.6953 16.3377 18.6953L15.6808 18.6953L15.6696 18.6954L12.6603 18.6954L12.649 18.6953L11.3352 18.6953L11.324 18.6954L8.31473 18.6954L8.30343 18.6953L7.6542 18.6953Z"/></svg>

<svg xmlns="http://www.w3.org/2000/svg" fill="none" viewBox="0 0 24 24" focusable="false"><path fill="#74767B" fill-rule="evenodd" d="M7.09 5.36c.18-.04.36-.06.55-.06h.66c.36 0 .65-.3.65-.66 0-.35-.29-.64-.65-.64h-.66c-.29 0-.58.03-.86.1-.29.07-.49.33-.49.63 0 .05 0 .1.02.15.08.35.43.56.78.48M11.33 4c-.36 0-.65.29-.65.64 0 .36.29.66.65.66h1.31c.36 0 .65-.3.65-.66 0-.35-.29-.64-.65-.64zm4.35 0c-.36 0-.65.29-.65.64 0 .36.29.66.65.66h.65c.19 0 .38.02.56.06.34.08.7-.13.78-.48.01-.05.02-.1.02-.15 0-.3-.2-.56-.5-.63-.28-.07-.56-.1-.86-.1zM5.36 7.09c.01-.05.02-.1.02-.15 0-.29-.2-.56-.5-.63-.35-.09-.7.13-.78.48-.07.27-.1.56-.1.85v.66c0 .36.29.65.64.65.36 0 .65-.29.65-.65v-.66c0-.19.03-.37.07-.55m14.52-.3a.653.653 0 0 0-.79-.48c-.29.07-.49.34-.49.63 0 .05 0 .1.02.15.04.18.06.36.06.55v.66c0 .36.29.65.65.65s.65-.29.65-.65v-.66c0-.29-.04-.58-.1-.85m-8.55 2.13c0 .36.29.65.65.65s.65-.29.65-.65v-1.2c0-.36-.29-.65-.65-.65s-.65.29-.65.65zm8.65 2.42c0-.36-.29-.65-.65-.65s-.65.29-.65.65v1.31c0 .36.29.65.65.65s.65-.29.65-.65zm-14.69 0c0-.36-.29-.65-.65-.65-.35 0-.64.29-.64.65v1.31c0 .36.29.65.64.65.36 0 .65-.29.65-.65zm1.77.65c0 .36.29.65.65.65h1.2c.36 0 .65-.29.65-.65s-.29-.65-.65-.65h-1.2c-.36 0-.65.29-.65.65m7.35 0c0 .36.29.65.65.65h1.19c.36 0 .65-.29.65-.65s-.29-.65-.65-.65h-1.19c-.36 0-.65.29-.65.65m-3.08 4.27c0 .36.29.65.65.65s.65-.29.65-.65v-1.19c0-.36-.29-.65-.65-.65s-.65.29-.65.65zm-3.68 2.43a2.35 2.35 0 0 1-2.33-2.35v-.35c0-.07-.01-.14-.03-.2v-.11c0-.36-.29-.65-.65-.65-.35 0-.64.29-.64.65v.66c0 .3.03.58.1.86.01.07.04.13.08.19.36 1.19 1.3 2.13 2.5 2.46.03.02.07.03.1.04.28.07.57.1.86.1h8.71c2.01 0 3.65-1.63 3.65-3.65v-.35c0-.05-.01-.1-.02-.15v-.16c0-.36-.29-.65-.65-.65s-.65.29-.65.65v.66c0 .19-.02.38-.06.55-.01.04-.02.09-.02.13-.24.78-.86 1.38-1.65 1.59-.02.01-.04.01-.06.01-.18.05-.37.07-.56.07H7.65"/></svg>
